images/svgs/linkedin.svg

<?xml version="1.0" encoding="UTF-8"?>
<svg width="23px" height="21px" viewBox="0 0 23 21" version="1.1" xmlns="http://www.w3.org/2000/svg" xmlns:xlink="http://www.w3.org/1999/xlink">
    <!-- Generator: Sketch 45.1 (43504) - http://www.bohemiancoding.com/sketch -->
    <title>Combined Shape</title>
    <desc>Created with Sketch.</desc>
    <defs></defs>
    <g id="Page-1" stroke="none" stroke-width="1" fill="none" fill-rule="evenodd">
        <g id="Contact-page---Desktop" transform="translate(-181.000000, -427.000000)" fill-rule="nonzero" fill="#846DCB">
            <g id="linkedin" transform="translate(181.000000, 427.000000)">
                <path d="M8.41964286,6.77678571 L12.6820357,6.77678571 L12.6820357,8.96178571 L12.7428214,8.96178571 C13.3358929,7.89803571 14.7873571,6.77678571 16.9501786,6.77678571 C21.4491429,6.77678571 22.28125,9.57703571 22.28125,13.2200714 L22.28125,20.6383929 L17.8389643,20.6383929 L17.8389643,14.0620357 C17.8389643,12.4931071 17.8069286,10.4756786 15.5282857,10.4756786 C13.2143214,10.4756786 12.8611071,12.18425 12.8611071,13.9478571 L12.8611071,20.6383929 L8.41964286,20.6383929 L8.41964286,6.77678571 Z M0.71875,6.77678571 L5.33928571,6.77678571 L5.33928571,20.6383929 L0.71875,20.6383929 L0.71875,6.77678571 Z M5.33928571,2.92675 C5.33928571,4.20242857 4.30510714,5.23742857 3.02860714,5.23742857 C1.75210714,5.23742857 0.717928571,4.20325 0.717928571,2.92675 C0.717928571,1.65107143 1.75210714,0.616071429 3.02860714,0.616071429 C4.30510714,0.616071429 5.33928571,1.65025 5.33928571,2.92675 Z" id="Combined-Shape"></path>
            </g>
        </g>
    </g>
</svg>

<svg width="23" height="21" viewBox="0 0 23 21" xmlns="http://www.w3.org/2000/svg"><title>Combined Shape</title><path d="M8.42 6.777h4.262v2.185h.06c.594-1.064 2.045-2.185 4.208-2.185 4.5 0 5.331 2.8 5.331 6.443v7.418H17.84v-6.576c0-1.569-.032-3.586-2.31-3.586-2.315 0-2.668 1.708-2.668 3.472v6.69H8.42V6.777zm-7.701 0h4.62v13.861H.72V6.777zm4.62-3.85a2.31 2.31 0 1 1-4.621 0 2.31 2.31 0 0 1 4.621 0z" fill="#846DCB"/></svg>
